GNOME++/apps/symbolic/vlc-symbolic.svg

<svg width="16" height="16" version="1.1" xmlns="http://www.w3.org/2000/svg">
 <g transform="translate(0,-32)">
  <g transform="matrix(.34414011 0 0 .34414011 -.35768841 32.158118)">
   <path transform="matrix(2.9057932 0 0 2.9057932 1.0393686 -.45945821)" d="m2.7773438 9.5410156c-0.2247808 0-0.40625 0.2046218-0.40625 0.4589844l-1.5214844 5.042969c-1e-8 0.254362 0.18146922 0.458984 0.40625002 0.458984h13.488282c0.224781 0 0.40625-0.204622 0.40625-0.458984l-1.419922-5.042969c0-0.2543626-0.18147-0.4589844-0.40625-0.4589844h-1.46875c0.152055 0.4203969-0.211624 0.7547934-0.191407 0.8222654-0.590008 0.648925-2.0513632 1.103516-3.6621089 1.103516-1.6778599 0-3.1094143-0.491194-3.6542969-1.183594 0.039094-0.123371-0.3874138-0.4192846-0.2597656-0.7421874h-1.3105468zm1.3769531 0.6347654c0.2244454 0.284713 0.5004097 0.624181 0.5292969 0.667969 0.0821689 0.124548 1.423462 0.498385 1.6425781 0.591797 0.219116 0.093413 2.4112398 0.402785 2.9316406 0.341797 0.5204008-0.060991 2.5742185-0.777344 2.5742185-0.777344s0.172987-0.184257 0.222657-0.236328c0.008191 0.026149 0.107421 0.351562 0.107421 0.351562 0.004488 0.006419 0.005423 0.013079 0.009766 0.019532 0.119051 0.17689 0.191406 0.362502 0.191406 0.55664 0 1.073186-1.95229 1.9375-4.363281 1.9375-2.4109905 0-4.3632812-0.864314-4.3632812-1.9375-1e-7 -0.213605 0.0796085-0.415174 0.2226562-0.607422 0 0 0.2391295-0.73938 0.2949219-0.908203z" style="fill:#241f31"/>
   <g transform="translate(-.1205365)" style="fill:#241f31">
    <path transform="matrix(2.9057932 0 0 2.9057932 1.1599051 -.45945821)" d="m8.0292969 0.49609375c-0.2106011 0.00431102-0.4169755 0.05399229-0.6367188 0.14453125-0.1136426 0.04682298-0.2019666 0.15400665-0.234375 0.26171875-0.9801754 3.2577278-3.2988281 9.3886722-3.2988281 9.3886722-0.1430477 0.169109-0.2226562 0.343354-0.2226562 0.53125 0 0.94402 1.9522907 1.705078 4.3632812 1.705078 2.410991 0 4.363281-0.761058 4.363281-1.705078 0-0.170773-0.072355-0.330728-0.191406-0.486328-0.004343-0.005675-0.005278-0.011931-0.009766-0.017579 0 0-2.2631549-6.3401115-3.2050778-9.4707028-0.0316883-0.10532824-0.1529848-0.18381314-0.265625-0.2265625-0.2364635-0.08974338-0.4515082-0.12931102-0.6621093-0.125zm-0.8730469 1.8320312c0.3521014 0.0619283 0.4494446 0.0976563 0.84375 0.0976562 0.4076553 0 0.6102008-0.0315499 0.9726562-0.0976562 0.2421942 0.9223659 0.6683091 1.9193027 0.9472657 2.9277344-0.5578264 0.196728-1.1913233 0.3144531-1.9199219 0.3144531-0.7201965 0-1.2571685-0.1125252-1.8105469-0.3046875 0.2887346-1.0038144 0.7173566-2.0050858 0.9667969-2.9375zm-1.8652344 5.3535156c0.7087803 0.3526304 1.5896898 0.5722656 2.7109375 0.5722656 1.100292 0 2.0465919-0.2131138 2.7539059-0.5527343 0.381371 1.2983167 0.864028 2.5146911 0.908203 2.6621091-0.590009 0.648925-2.0513632 1.103516-3.6621089 1.103516-1.6778599 0-3.1094143-0.491194-3.6542969-1.183594 0.0955065-0.3013968 0.5268886-1.2469144 0.9433594-2.6015624z" style="fill:#241f31"/>
   </g>
  </g>
 </g>
</svg>

<svg xmlns="http://www.w3.org/2000/svg" width="16" height="16" version="1.1">
 <g transform="translate(0,-32)">
  <g transform="matrix(0.34414011,0,0,0.34414011,-0.35768841,32.158118)">
   <path style="fill:#241f31" d="M 2.7773438 9.5410156 C 2.552563 9.5410156 2.3710938 9.7456374 2.3710938 10 L 0.84960938 15.042969 C 0.84960937 15.297331 1.0310786 15.501953 1.2558594 15.501953 L 14.744141 15.501953 C 14.968922 15.501953 15.150391 15.297331 15.150391 15.042969 L 13.730469 10 C 13.730469 9.7456374 13.548999 9.5410156 13.324219 9.5410156 L 11.855469 9.5410156 C 12.007524 9.9614125 11.643845 10.295809 11.664062 10.363281 C 11.074054 11.012206 9.6126988 11.466797 8.0019531 11.466797 C 6.3240932 11.466797 4.8925388 10.975603 4.3476562 10.283203 C 4.3867502 10.159832 3.9602424 9.8639184 4.0878906 9.5410156 L 2.7773438 9.5410156 z M 4.1542969 10.175781 C 4.3787423 10.460494 4.6547066 10.799962 4.6835938 10.84375 C 4.7657627 10.968298 6.1070558 11.342135 6.3261719 11.435547 C 6.5452879 11.52896 8.7374117 11.838332 9.2578125 11.777344 C 9.7782133 11.716353 11.832031 11 11.832031 11 C 11.832031 11 12.005018 10.815743 12.054688 10.763672 C 12.062879 10.789821 12.162109 11.115234 12.162109 11.115234 C 12.166597 11.121653 12.167532 11.128313 12.171875 11.134766 C 12.290926 11.311656 12.363281 11.497268 12.363281 11.691406 C 12.363281 12.764592 10.410991 13.628906 8 13.628906 C 5.5890095 13.628906 3.6367188 12.764592 3.6367188 11.691406 C 3.6367187 11.477801 3.7163273 11.276232 3.859375 11.083984 C 3.859375 11.083984 4.0985045 10.344604 4.1542969 10.175781 z" transform="matrix(2.9057932,0,0,2.9057932,1.0393686,-0.45945821)"/>
   <g transform="translate(-0.1205365,0)" style="fill:#241f31">
    <path style="fill:#241f31" d="M 8.0292969 0.49609375 C 7.8186958 0.50040477 7.6123214 0.55008604 7.3925781 0.640625 C 7.2789355 0.68744798 7.1906115 0.79463165 7.1582031 0.90234375 C 6.1780277 4.1600715 3.859375 10.291016 3.859375 10.291016 C 3.7163273 10.460125 3.6367188 10.63437 3.6367188 10.822266 C 3.6367188 11.766286 5.5890095 12.527344 8 12.527344 C 10.410991 12.527344 12.363281 11.766286 12.363281 10.822266 C 12.363281 10.651493 12.290926 10.491538 12.171875 10.335938 C 12.167532 10.330263 12.166597 10.324007 12.162109 10.318359 C 12.162109 10.318359 9.8989541 3.9782475 8.9570312 0.84765625 C 8.9253429 0.74232801 8.8040464 0.66384311 8.6914062 0.62109375 C 8.4549427 0.53135037 8.239898 0.49178273 8.0292969 0.49609375 z M 7.15625 2.328125 C 7.5083514 2.3900533 7.6056946 2.4257813 8 2.4257812 C 8.4076553 2.4257812 8.6102008 2.3942313 8.9726562 2.328125 C 9.2148504 3.2504909 9.6409653 4.2474277 9.9199219 5.2558594 C 9.3620955 5.4525874 8.7285986 5.5703125 8 5.5703125 C 7.2798035 5.5703125 6.7428315 5.4577873 6.1894531 5.265625 C 6.4781877 4.2618106 6.9068097 3.2605392 7.15625 2.328125 z M 5.2910156 7.6816406 C 5.9997959 8.034271 6.8807054 8.2539062 8.0019531 8.2539062 C 9.1022451 8.2539062 10.048545 8.0407924 10.755859 7.7011719 C 11.13723 8.9994886 11.619887 10.215863 11.664062 10.363281 C 11.074053 11.012206 9.6126988 11.466797 8.0019531 11.466797 C 6.3240932 11.466797 4.8925388 10.975603 4.3476562 10.283203 C 4.4431627 9.9818062 4.8745448 9.0362886 5.2910156 7.6816406 z" transform="matrix(2.9057932,0,0,2.9057932,1.1599051,-0.45945821)"/>
   </g>
  </g>
 </g>
</svg>
